X: 6
T: Saint Patrick's Day
R: jig
M: 6/8
L: 1/8
K: Gmaj
D|:GAG GBc|d3 dBG|A^GA B=GD|EFG AFD||GAG GBc|d3 dBG|A^GA B=GD|Ez FG2 D||GAG GBc|ded dBG|A^GA B=GD|EFG AFD||GAG GBc|d3 dBG|A^GA B=GD|Ez FG2D||GAG GBc|d3 dBG|A^GA B=GD|EFG AFD||GAG GBc|d3 dBG|A^GA B=GD|Ez FG2 B||def gfe|{a}fed edB|def gfe|{a}fed e2 B||def gfe|fed efg||GAG GBc|d3 dBG|A^GA B=GD|EFG AFD||GAG GBc|d3 dBG|A^GA B=GD|1Ez FG2 D:|2Ez FG3||


Tune 385	Setting 385

